X:1
T:The Providence
R:reel
M:4/4
L:1/8
K:D
|:E2EF DEFA|d2fd gdfd|edBd A2FA|(3Bcd AF GFED|
|EDEF DEFA|d2fd gdfd|edBd A2FA|1 (3Bcd AG FDDF:|2 (3Bcd AG FDDe|]
|:fd~d2 fdgd|fd~d2 ecAe|fd~d2 Adfd|ceag fdde|
|fgaf gfec|dBAF G2FG|A2^GB ABde|1 faeg fdde:|2 faeg fdAF|]